icons/1_Primary/Onshape.svg

<svg width="1024" height="1024" viewBox="0 0 1024 1024" fill="none" xmlns="http://www.w3.org/2000/svg">
<g clip-path="url(#clip0_2_3030)">
<path d="M512 1024C794.77 1024 1024 794.77 1024 512C1024 229.23 794.77 0 512 0C229.23 0 0 229.23 0 512C0 794.77 229.23 1024 512 1024Z" fill="#98DC9A"/>
<path d="M395.311 504L437.551 528.26V473.53L552.551 406.3L511.001 380.65L395.311 448.58V504ZM511.001 224L606.571 279.45L355.181 428.45V556.71L263.771 503.34V368.18L511.001 224ZM577.481 420.85L535.201 445.11L583.681 473.53L583.001 603.15L625.241 578.89V448.58L577.451 420.85H577.481ZM760.271 654.44L664.701 711.28V426.4L549.001 358.47L646.001 302.33L760.271 368.87V654.44ZM558.741 618.44V571.27L510.261 599.69L395.261 532.46V579.59L510.911 646.82L558.741 618.44ZM263.741 656.56V551.16L511.001 692.56L624.581 624.63L625.271 734.15L513.721 800L263.721 656.52L263.741 656.56Z" fill="white"/>
</g>
<defs>
<clipPath id="clip0_2_3030">
<rect width="1024" height="1024" fill="white"/>
</clipPath>
</defs>
</svg>

<svg xmlns="http://www.w3.org/2000/svg" width="1024" height="1024" fill="none">
   <g clip-path="url(#a)">
      <path fill="#98DC9A" d="M512 1024c282.77 0 512-229.23 512-512S794.77 0 512 0 0 229.23 0 512s229.23 512 512 512Z"/>
      <path fill="#fff" d="m395.311 504 42.24 24.26v-54.73l115-67.23-41.55-25.65-115.69 67.93V504Zm115.69-280 95.57 55.45-251.39 149v128.26l-91.41-53.37V368.18L511.001 224Zm66.48 196.85-42.28 24.26 48.48 28.42-.68 129.62 42.24-24.26V448.58l-47.79-27.73h.03Zm182.79 233.59-95.57 56.84V426.4l-115.7-67.93 97-56.14 114.27 66.54v285.57Zm-201.53-36v-47.17l-48.48 28.42-115-67.23v47.13l115.65 67.23 47.83-28.38Zm-295 38.12v-105.4l247.26 141.4 113.58-67.93.69 109.52L513.721 800l-250-143.48.02.04Z"/>
   </g>
   <defs>
      <clipPath id="a">
         <path fill="#fff" d="M0 0h1024v1024H0z"/>
      </clipPath>
   </defs>
</svg>
